X:1
T:Title
%%score { ( 1 3 ) | ( 2 4 ) }
L:1/8
Q:1/4=108
M:4/4
K:C
V:1 treble nm="Grand Piano"
V:3 treble 
V:2 bass 
V:4 bass 
V:1
 [CFA]2 [CFA]2 [_B,E^G]4 | [CFA]2 [CFA]2 [_B,E^G]4 | [CFA]2 [FAc]2 [FAd]2 [FAe]2 | %3
w: I.~H.~Meredith * *|||
 [FAd]2 [FAc]2 [CFA]2 [CF]2 | [CE_B]2 [CEB]2 [C_EA]4 | [CE_B]2 [CEB]2 [C_EA]4 | %6
w: |||
 [E_B]2 [_B,EG]2 [A,_E^F]2 [B,=EG]2 | [CEA]2 [_B,EG]2[K:bass] [G,CE]2 [E,C]2 | %8
w: ||
 [CFA]2 [CFA]2 [B,F^G]4 | [CFA]2 [CFA]2 [B,F^G]4 | [CFA]2 [FAc]2 [FAd]2 [FAe]2 | %11
w: |||
 [FAd]2 [FAc]2 A2 F2 | z4 c4 | [GBd]2 [DGd]2 [EGe]4 | [FAd]2 [FA]2 [DFB]2 [B,FG]2 | %15
w: ||||
[M:3/4] [CEGc]6 |[M:1/4] d z |[M:4/4] [FA]2 [EFA]2 [DFA]2 [^CFA]2 | [CFA]6 .[C^F_B]2 | %19
w: ||||
 [_B,DG]2 [B,D]2 [B,D]2 [B,D]2 | [_B,D]6 .[DG]2 | [CE]2 [CEc]2 [CFc]2 [C^Fc]2 | c6 z2 | %23
w: ||||
 [CF]2 [CFc]2 [_EAc]2 [EAc]2 | c6 z2 | [FA]2 [EFA]2 [DFA]2 [^CFA]2 | [CFA]6 .[C^F_B]2 | %27
w: ||||
 [_B,G]2 [B,D]2 [B,D]2 [B,D]2 | [^G,DF]6 ED | [F,A,C]2 [CFc]2 [C^F_B]2 [CFA]2 | %30
w: |||
 [_B,DG]2 [B,D]4 .[G,DE]2 | [CFA]4 [_B,EG]4 | [A,CF]6 z2 |] %33
w: |||
V:2
 F,,2 C,2 C,,2 C,2 | F,,2 C,2 C,,2 C,2 | F,,2 C,2 F,2 C,2 | F,,2 C,2 F,2 A,2 | G,2 G,2 ^F,2 C,2 | %5
 G,2 G,2 ^F,2 C,2 | [C,G,]2 C,2 C,2 C,2 | C,2 C,2 C,2 C,2 | F,,2 C,2 ^C,2 ^C,,2 | %9
 F,,2 C,2 ^C,2 ^C,,2 | F,,2 C,2 F,2 C,2 | F,,2 C,2 [F,CF]2 [A,C]2 | %12
 [G,CE]2 [F,B,D]2 [E,G,C]2 [C,G,]2 | [G,,G,]2 [B,,B,]2 [C,C]2 [C,,C,]2 | %14
 [F,,F,]2 [D,,D,]2 [G,,G,]2 [G,,G,]2 |[M:3/4] [C,,C,]2 G,,2 C,,2 |[M:1/4] z[K:treble] c | %17
[M:4/4][K:bass] F,,2 C,2 F,2 C,2 | F,,2 C,2 F,2 z A | G,,2 D,2 G,2 D,2 | G,,2 D,2 G,2 z F | %21
 C,2 C,2 D,2 _E,2 | E,2 D,2 C,2 z G | A,,2 A,,2 ^F,,2 F,,2 | G,,2 F,,2 E,,2 z[K:treble] c | %25
 F,,2 C,2 F,2 C,2 | F,,2 C,2 F,2 z A | G,,2 D,2 G,2 D,2 | B,,2 D,2 F,2 [B,,^G,]2 | %29
 C,2 A,,2 D,2 D,,2 | G,,2 _B,,D, G,2 z F | C,4 C,4 | F,,2 C,,2 F,,,2 z2 |] %33
V:3
 x8 | x8 | x8 | x8 | x8 | x8 | x8 | x4[K:bass] x4 | x8 | x8 | x8 | x8 | G2 G2 z2 E2 | x8 | x8 | %15
[M:3/4] x6 |[M:1/4] [E_B]2 |[M:4/4] x8 | x8 | x8 | x8 | x8 | [CG]2 [CF]2 [CE]2 .[CEA]2 | x8 | %24
 [E_B]2 [DB]2 [CB]2 .[Ed]2 | x8 | x8 | x8 | x8 | x8 | x8 | x8 | F,2 C,2 F,,2 z2 |] %33
V:4
 x8 | x8 | x8 | x8 | x8 | x8 | x8 | x8 | x8 | x8 | x8 | x8 | x8 | x8 | x8 |[M:3/4] x6 | %16
[M:1/4] C,2[K:treble] |[M:4/4][K:bass] x8 | z4 z2 D,2 | x8 | z4 z2 _B,,2 | x8 | z4 z2 _B,,2 | x8 | %24
 z4 z2 C,,2[K:treble] | x8 | z4 z2 D,2 | x8 | x8 | x8 | z4 z2 _B,,2 | z2 C,,2 z2 C,,2 | x8 |] %33

